X: 36
T:Bein Nehar Prat
C:Nachum Nardi 1970
D: Israeli FOlk Dance Souvenir (Tikva-148)
F: http://www.youtube.com/watch?v=TaAqZsOjb7k
M:4/4
L:1/8
Q:1/4=120
K:EMix
"E"e2 e2 {e}e3 c |"Bm" dc dc B4|"Dm".d2 .d2 c3 B | "Bm".B.B cB "Am"A4 |:
"Am"=c3 B/c/ dcBA|"E"GABA G4   |BA AG "Fm"G=F FE |[1 GAG=F "E"E B3    :|[2 "Fm"GAG=F "E"E4|



